X: 41
T: Battle of the Boyn
N: The title has "Boy?n", with an illegible smudge; the Table of Contents spells it "Boyn"; the modern spelling is "Boyne".
P: Longways for as many as will
%R: reel
B: "The Dancing-Master" printed by John Walsh, London
S: 6: CCDM1 http://imslp.org/wiki/The_Compleat_Country_Dancing-Master_(Various) V.1 p.?? #8
Z: 2012-2013 John Chambers <jc:trillian.mit.edu>
N: 2nd part has initial repeat but no final repeat.
M: C|
L: 1/8
K: G
% - - - - - - - - - - - - - - - - - - - - - - - - -
|:\
B2AG TF3E | DEFG A4 | B2AB G2G2 | GABG c4 |\
c2cd B2Bc | A2AG F2ef | g2d2 edcB | ABcd B2AG :|
|:\
g2G2 g2G2 | gfef g2G2 | G2GA F3G | E2E2 c4 |\
c2cd B2Bc | A2AG F2ef | g2d2 edcB | ABcd B2G2 :|
% - - - - - - - - Dance description - - - - - - - -
%%begintext align
%% The 1st and 2d Men leads through the two We. and turn in their own Places .|
%% The two We. does the same :|
%% First and 2d Cu. clap Hands, 1st Cu. leads through the 2d .|
%% Then the 1st Cu. cross over and half figure at Top.
%%endtext

%%sep 1 1 500
%%sep 1 1 500
